svg/playbook.svg

<?xml version="1.0" encoding="UTF-8"?>
<svg xmlns="http://www.w3.org/2000/svg" xmlns:xlink="http://www.w3.org/1999/xlink" width="32.297001" height="32" viewBox="0 0 32.297001 32">
<path fill-rule="nonzero" fill="rgb(19.607843%, 42.352941%, 89.803922%)" fill-opacity="1" d="M 6.632812 7.460938 L 14.925781 3.46875 C 14.140625 2.945312 13.777344 1.976562 14.019531 1.066406 L 4.953125 5.433594 C 5.898438 5.664062 6.582031 6.488281 6.632812 7.460938 M 1.636719 17.953125 C 2.101562 17.953125 2.539062 18.09375 2.894531 18.34375 L 4.859375 9.734375 C 4.222656 9.859375 3.566406 9.699219 3.058594 9.292969 C 2.824219 9.109375 2.632812 8.878906 2.492188 8.617188 L 0.25 18.441406 C 0.511719 18.226562 0.820312 18.078125 1.148438 18.007812 C 1.308594 17.96875 1.472656 17.953125 1.636719 17.953125 M 29.242188 9.292969 C 28.851562 9.605469 28.367188 9.773438 27.867188 9.773438 C 27.722656 9.773438 27.578125 9.761719 27.4375 9.734375 L 29.402344 18.34375 C 29.761719 18.09375 30.195312 17.953125 30.660156 17.953125 C 30.824219 17.953125 30.988281 17.96875 31.148438 18.007812 C 31.480469 18.082031 31.789062 18.230469 32.050781 18.445312 L 29.804688 8.613281 C 29.667969 8.878906 29.476562 9.109375 29.242188 9.292969 M 17.371094 3.46875 L 25.664062 7.460938 C 25.710938 6.488281 26.394531 5.660156 27.34375 5.433594 L 18.277344 1.066406 C 18.519531 1.976562 18.15625 2.945312 17.371094 3.46875 M 30.171875 22.304688 C 29.570312 22.164062 29.054688 21.78125 28.75 21.242188 L 23.21875 28.175781 C 23.816406 28.347656 24.328125 28.765625 24.605469 29.335938 C 24.753906 29.636719 24.820312 29.957031 24.824219 30.269531 L 31.183594 22.296875 C 31.011719 22.335938 30.839844 22.359375 30.664062 22.359375 C 30.5 22.359375 30.335938 22.339844 30.171875 22.304688 M 20.636719 31.253906 C 20.363281 30.683594 20.347656 30.023438 20.59375 29.441406 L 11.703125 29.441406 C 12.085938 30.339844 11.828125 31.382812 11.070312 32 L 21.230469 32 C 20.980469 31.796875 20.777344 31.542969 20.636719 31.253906 M 9.078125 28.175781 L 3.546875 21.242188 C 3.0625 22.097656 2.070312 22.527344 1.117188 22.296875 L 7.472656 30.269531 C 7.476562 29.945312 7.550781 29.628906 7.691406 29.335938 C 7.96875 28.765625 8.480469 28.347656 9.078125 28.175781 M 31.023438 18.5625 C 30.90625 18.53125 30.78125 18.519531 30.660156 18.519531 C 30.109375 18.519531 29.59375 18.800781 29.292969 19.261719 L 22.742188 17.773438 L 22.75 17.765625 C 24.039062 17.019531 24.039062 15.160156 22.75 14.414062 L 21.273438 13.5625 L 27.019531 8.972656 C 27.277344 9.121094 27.570312 9.203125 27.867188 9.207031 C 28.222656 9.207031 28.582031 9.089844 28.886719 8.851562 C 29.429688 8.417969 29.636719 7.6875 29.40625 7.03125 C 29.230469 6.53125 28.824219 6.148438 28.316406 6 C 27.804688 5.855469 27.257812 5.964844 26.84375 6.296875 C 26.3125 6.722656 26.097656 7.433594 26.3125 8.082031 L 20.214844 12.953125 L 16.71875 10.933594 L 16.71875 3.167969 C 16.71875 3.167969 16.730469 3.164062 16.734375 3.160156 C 17.472656 2.878906 17.90625 2.113281 17.765625 1.335938 C 17.617188 0.558594 16.9375 -0.00390625 16.148438 0 C 15.621094 0 15.128906 0.253906 14.824219 0.679688 C 14.621094 0.957031 14.511719 1.292969 14.511719 1.636719 C 14.511719 2.332031 14.949219 2.925781 15.5625 3.160156 C 15.570312 3.164062 15.574219 3.167969 15.578125 3.167969 L 15.578125 10.277344 L 13.757812 9.222656 C 12.46875 8.480469 10.855469 9.410156 10.855469 10.898438 L 10.855469 11.972656 L 5.984375 8.085938 C 6.203125 7.4375 5.992188 6.71875 5.453125 6.296875 C 5.117188 6.023438 4.683594 5.898438 4.253906 5.945312 C 3.726562 6.003906 3.261719 6.316406 3.003906 6.78125 C 2.746094 7.242188 2.726562 7.804688 2.957031 8.28125 C 3.324219 9.042969 4.210938 9.398438 5.003906 9.101562 C 5.097656 9.066406 5.191406 9.023438 5.277344 8.972656 L 10.855469 13.425781 L 10.855469 17.476562 L 3.003906 19.261719 C 2.933594 19.152344 2.847656 19.050781 2.753906 18.960938 C 2.449219 18.679688 2.050781 18.519531 1.636719 18.519531 C 1.515625 18.519531 1.390625 18.53125 1.273438 18.5625 C 0.851562 18.65625 0.480469 18.914062 0.25 19.28125 C 0.0195312 19.648438 -0.0546875 20.09375 0.0429688 20.515625 C 0.214844 21.289062 0.917969 21.828125 1.710938 21.792969 C 2.503906 21.757812 3.15625 21.15625 3.257812 20.371094 L 10.855469 18.644531 L 10.855469 21.28125 C 10.855469 22.292969 11.597656 23.046875 12.480469 23.191406 L 9.832031 28.667969 C 9.714844 28.65625 9.59375 28.65625 9.476562 28.671875 C 8.609375 28.769531 7.972656 29.527344 8.023438 30.398438 C 8.078125 31.265625 8.804688 31.941406 9.675781 31.929688 C 10.332031 31.929688 10.921875 31.539062 11.179688 30.9375 C 11.4375 30.335938 11.308594 29.636719 10.855469 29.164062 L 13.890625 22.878906 L 17.421875 20.84375 L 21.441406 29.164062 C 20.894531 29.734375 20.832031 30.617188 21.296875 31.257812 C 21.765625 31.894531 22.621094 32.105469 23.328125 31.761719 C 24.039062 31.417969 24.40625 30.617188 24.195312 29.855469 C 23.984375 29.09375 23.257812 28.59375 22.46875 28.667969 L 18.410156 20.273438 L 21.292969 18.609375 L 29.042969 20.371094 C 29.152344 21.183594 29.84375 21.789062 30.664062 21.789062 C 31.5 21.796875 32.203125 21.167969 32.292969 20.339844 C 32.386719 19.511719 31.839844 18.746094 31.027344 18.5625 Z M 27.421875 7.015625 C 27.570312 6.898438 27.757812 6.84375 27.945312 6.863281 C 28.335938 6.910156 28.617188 7.261719 28.574219 7.652344 C 28.550781 7.839844 28.457031 8.011719 28.308594 8.128906 C 28 8.371094 27.554688 8.320312 27.308594 8.015625 C 27.191406 7.867188 27.136719 7.679688 27.15625 7.492188 C 27.179688 7.304688 27.273438 7.132812 27.421875 7.015625 M 15.4375 1.632812 C 15.4375 1.242188 15.757812 0.921875 16.148438 0.921875 C 16.539062 0.921875 16.859375 1.242188 16.859375 1.632812 C 16.871094 1.894531 16.738281 2.144531 16.515625 2.28125 C 16.289062 2.417969 16.007812 2.417969 15.78125 2.28125 C 15.554688 2.148438 15.421875 1.898438 15.4375 1.632812 M 3.988281 8.128906 C 3.683594 7.882812 3.632812 7.4375 3.875 7.128906 C 4.121094 6.824219 4.566406 6.773438 4.875 7.015625 C 5.023438 7.132812 5.117188 7.304688 5.140625 7.492188 C 5.171875 7.777344 5.027344 8.054688 4.777344 8.195312 C 4.523438 8.335938 4.214844 8.308594 3.988281 8.128906 M 1.792969 20.847656 C 1.511719 20.910156 1.21875 20.796875 1.054688 20.5625 C 0.890625 20.324219 0.882812 20.015625 1.035156 19.769531 C 1.257812 19.464844 1.679688 19.382812 1.996094 19.585938 C 2.316406 19.789062 2.421875 20.203125 2.238281 20.535156 C 2.136719 20.695312 1.976562 20.808594 1.792969 20.847656 M 10.316406 30.605469 C 10.234375 30.773438 10.085938 30.90625 9.910156 30.96875 C 9.730469 31.027344 9.535156 31.015625 9.367188 30.933594 C 9.019531 30.761719 8.878906 30.339844 9.046875 29.992188 C 9.167969 29.734375 9.433594 29.574219 9.71875 29.589844 C 10.003906 29.605469 10.253906 29.792969 10.347656 30.0625 C 10.410156 30.238281 10.398438 30.433594 10.316406 30.605469 M 23.261719 29.984375 C 23.34375 30.15625 23.355469 30.351562 23.292969 30.53125 C 23.230469 30.707031 23.101562 30.855469 22.929688 30.933594 C 22.761719 31.015625 22.5625 31.027344 22.386719 30.964844 C 22.207031 30.902344 22.0625 30.773438 21.980469 30.601562 C 21.8125 30.246094 21.960938 29.824219 22.3125 29.652344 C 22.667969 29.484375 23.089844 29.632812 23.261719 29.984375 M 18.40625 16.722656 L 15.023438 18.675781 C 14.796875 18.808594 14.519531 18.808594 14.292969 18.675781 C 14.070312 18.546875 13.929688 18.304688 13.933594 18.042969 L 13.933594 14.136719 C 13.933594 13.578125 14.539062 13.226562 15.023438 13.507812 L 18.40625 15.460938 C 18.628906 15.59375 18.765625 15.832031 18.765625 16.09375 C 18.765625 16.351562 18.628906 16.589844 18.40625 16.722656 M 31.355469 20.3125 C 31.300781 20.5625 31.117188 20.761719 30.871094 20.835938 C 30.628906 20.910156 30.363281 20.851562 30.175781 20.675781 C 29.988281 20.503906 29.910156 20.242188 29.96875 19.996094 C 30.085938 19.644531 30.445312 19.441406 30.804688 19.523438 C 31.164062 19.605469 31.402344 19.949219 31.355469 20.3125 M 31.355469 20.3125 "/>
</svg>

<svg role="img" viewBox="0 0 32.297 32" fill="rgb(19.607843%, 42.352942%, 89.803922%)" xmlns="http://www.w3.org/2000/svg"><path d="m6.633 7.46 8.293-3.991a2.21 2.21 0 0 1-.906-2.403L4.953 5.434a2.2 2.2 0 0 1 1.68 2.027M1.637 17.954c.465 0 .902.14 1.258.39l1.964-8.609a2.2 2.2 0 0 1-1.8-.441 2.15 2.15 0 0 1-.567-.676L.25 18.441c.262-.214.57-.363.898-.433.16-.04.325-.055.489-.055m27.605-8.66a2.2 2.2 0 0 1-1.375.48q-.217.002-.43-.039l1.965 8.61c.36-.25.793-.39 1.258-.39.164 0 .328.015.488.054.332.074.641.222.903.437l-2.246-9.832a2.1 2.1 0 0 1-.563.68m-11.87-5.824 8.292 3.992c.047-.973.73-1.8 1.68-2.027l-9.067-4.368a2.21 2.21 0 0 1-.906 2.403m12.8 18.836a2.2 2.2 0 0 1-1.422-1.063l-5.531 6.934c.597.172 1.11.59 1.386 1.16.149.3.215.621.22.934l6.359-7.973q-.257.06-.52.062-.246-.002-.492-.054m-9.535 8.949a2.2 2.2 0 0 1-.043-1.813h-8.89A2.19 2.19 0 0 1 11.07 32h10.16a2.2 2.2 0 0 1-.593-.746M9.078 28.176l-5.531-6.934a2.2 2.2 0 0 1-2.43 1.055l6.356 7.973a2.2 2.2 0 0 1 .218-.934c.278-.57.79-.988 1.387-1.16m21.945-9.613a1.4 1.4 0 0 0-.363-.043c-.55 0-1.066.28-1.367.742l-6.55-1.489.007-.007c1.29-.746 1.29-2.606 0-3.352l-1.477-.851 5.747-4.59c.257.148.55.23.847.234.356 0 .715-.117 1.02-.355.543-.434.75-1.165.52-1.82a1.633 1.633 0 0 0-2.563-.735c-.532.426-.746 1.137-.532 1.785l-6.097 4.871-3.496-2.02V3.169s.011-.004.015-.008a1.64 1.64 0 0 0 1.032-1.824A1.64 1.64 0 0 0 16.148 0c-.527 0-1.02.254-1.324.68a1.62 1.62 0 0 0-.312.957c0 .695.437 1.289 1.05 1.523q.011.007.016.008v7.11l-1.82-1.055c-1.29-.743-2.903.187-2.903 1.675v1.075l-4.87-3.887a1.62 1.62 0 0 0-.532-1.79 1.62 1.62 0 0 0-1.2-.35 1.62 1.62 0 0 0-1.097.605A1.634 1.634 0 0 0 4.43 9.207c.195 0 .39-.035.574-.105q.143-.054.273-.13l5.578 4.454v4.05l-7.851 1.786a1.6 1.6 0 0 0-.25-.301 1.65 1.65 0 0 0-1.117-.441 1.4 1.4 0 0 0-.364.043 1.62 1.62 0 0 0-1.23 1.953 1.634 1.634 0 0 0 3.215-.145l7.597-1.726v2.636c0 1.012.743 1.766 1.625 1.91l-2.648 5.477a1.6 1.6 0 0 0-.355.004 1.64 1.64 0 0 0-1.454 1.726 1.635 1.635 0 0 0 1.653 1.532 1.635 1.635 0 0 0 1.18-2.766l3.035-6.285 3.53-2.035 4.02 8.32a1.635 1.635 0 1 0 1.027-.496l-4.058-8.395 2.883-1.664 7.75 1.762c.11.813.8 1.418 1.621 1.418a1.627 1.627 0 0 0 1.629-1.45 1.63 1.63 0 0 0-1.266-1.776ZM27.422 7.015a.71.71 0 0 1 1 .113.71.71 0 0 1-.113 1 .717.717 0 0 1-1-.113.72.72 0 0 1-.153-.524.72.72 0 0 1 .266-.476M15.438 1.633a.711.711 0 0 1 1.421 0 .712.712 0 1 1-1.422 0M3.988 8.129a.717.717 0 0 1-.113-1 .717.717 0 0 1 1-.113.72.72 0 0 1 .266.476.72.72 0 0 1-.364.703.71.71 0 0 1-.789-.066M1.793 20.848A.712.712 0 1 1 2.332 20a.71.71 0 0 1-.539.848m8.523 9.757a.73.73 0 0 1-.406.364.73.73 0 0 1-.543-.035.707.707 0 0 1-.32-.942.707.707 0 0 1 .937-.336.707.707 0 0 1 .332.95m12.946-.62a.71.71 0 0 1-.332.949.711.711 0 1 1 .332-.95m-4.856-13.262-3.383 1.953a.73.73 0 0 1-.726 0 .73.73 0 0 1-.363-.633v-3.906c0-.559.605-.91 1.09-.63l3.382 1.954a.732.732 0 0 1 0 1.262m12.95 3.59a.713.713 0 0 1-1.18.367.71.71 0 0 1-.207-.684.713.713 0 0 1 1.386.317m0 0"/></svg>
